X:114
T: WER DIE GANS GESTOHLEN HAT
N: K2163A
O: Europa, Mitteleuropa, Deutschland
R: Kinder - Lied, Reigen, Tanz - Spiel
M: 2/4
L: 1/16
K: C
 | C3DE2F2 | G3GG2
G2 | A4A4 | G8 |
F3FF2G2 | E2E2E3
E | D4G4 | C8 |
G4E2C2 | D2B,2C4 |
G4E2C2 | D2B,2C4

@@@ Tune index: 7451
